icons/24x24_stats_outline.svg

<svg xmlns="http://www.w3.org/2000/svg" width="24" height="24" viewBox="0 0 24 24">
  <path d="M13,18 L13,13 L11,13 L11,18 L9,18 L9,11 L7,11 L7,18 L5,18 L5,9 L11,9 L11,11 L13,11 L13,4 L19,4 L19,18 L17,18 L17,6.18181818 L15,6.18181818 L15,18 L13,18 Z M3,18 L21,18 C21.5522847,18 22,18.4477153 22,19 C22,19.5522847 21.5522847,20 21,20 L3,20 C2.44771525,20 2,19.5522847 2,19 C2,18.4477153 2.44771525,18 3,18 Z"/>
</svg>

<svg width="24" height="24" fill="none" xmlns="http://www.w3.org/2000/svg"><path d="M13 18v-5h-2v5H9v-7H7v7H5V9h6v2h2V4h6v14h-2V6.182h-2V18h-2ZM3 18h18a1 1 0 1 1 0 2H3a1 1 0 1 1 0-2Z" fill="#000"/></svg>
